X: 602
T: Tianshang hongyuen
L: 1/8
M: 2/4
K: G
B2d e [I:setbarnb 1]| 
d B d e | 
e d c B | 
A4 | 
B2d e | 
d Bd2 | 
e d c B | 
A4 | 
A2d2 | 
B d B d | 
B d B A | 
G2F E | 
E d B A | 
G A B d | 
A G F E | 
D2z2 | 
A2A2 | 
d d B A | 
G4 | 
E d B A | 
G A B d | 
A G F E | 
D2z2 |]

@@@ Tune index: 9476
